!!!COM: Fanny (Mendelssohn) Hensel
!!!CNT: Deutsch
!!!TXO: Deutsch
!!!OTL: "An Suleika"
!!!LYR: von Goethe, Johann Wolfgang
!!!OPR: 
!!!OPS: Op. 
!!!ONM: No. 
!!!ENC: Emily Thomas
!!!YOR: Hensel: Ausgewa2hlte Lieder fu2r Singstimme und Klavier
!!!YOR: Breitkopf & Hartel, 1994 vol. 2
!!!ODT: 1825/
!!NB: Vocal melody and text encoded.
**kern	**silbe
=1-	=1
*clefG2	*
*k[b-e-a-]	*
*M3/4	*
*MM60	*
4r	.
8r	.
{8e-	{Auch
8g	in
8b-	der
=2	=2
4.ee-	Fer-
8cc	-ne
8b-	dir
8a-	so
=3	=3
4g}	nah!}
8r	.
{8g	{Und
8f	un-
8e-	-er-
=4	=4
4.a-	-war-
8a-	-tet
8g	kommt
8a-	die
=5	=5
4g}	Qual.}
8r	.
{8e-	{Auch
8g	in
8b-	der
=6	=6
4.ee-	Fer-
8cc	-ne
8b-	dir
8an	so
=7	=7
4b-}	nah!}
8r	.
{8dd	{Und
8cc	un-
8b-	-er-
=8	=8
4.ee-	-war-
8ee-	-tet
8dd	kommt
8ee-	die
=9	=9
4dd}	Qual.}
4r	.
{4ff	{Da
=10	=10
8ff	ho2r
8aa-	|
8gg	|
8ff	|
8ee-	ich
8dd	|
=11	=11
2ee-	wie-
4ee-	-der
=12	=12
8ee-	dich
8cc	|
8an	|
8g	|
8f	ein-
8e-	|
=13	=13
4d}	-mal.}
4r	.
8r	.
{8b-	{Auf
=14	=14
8.ee-	ein-
16cc	|
4an	-mal,
8r	.
8cc	auf
=15	=15
8.ff	ein-
16dd	|
4b-	-mal,
8r	.
8b-	auf
=16	=16
8gg	ein-
8ee-	-mal
8dd	bist
8cc	du
8b-	wie-
8an	-der
=17	=17
4b-}	da.}
8r	.
{8e-	{Auch
8g	in
8b-	der
=18	=18
4.ee-	Fer-
8cc	-ne
8a-	dir
8f	so
=19	=19
8e-q	nah!
4.d}	|}
{8e-	{Auch
8g-	in
8b-	der
=20	=20
4.ee-	Fer-
8cc-	-ne
8b-	dir
8an	so
=21	=21
4b-}	nah!}
8r	.
{8b-	{Und
8ee-	un-
8ee-	-er-
=22	=22
4.ff-	-war-
8dd-	-tet
8b-	kommt
8f-	die
=23	=23
4e-}	Qual.}
8r	.
{8ee-	{Und
8ee-	un-
8ff	-er-
=24	=24
4.gg-	-war-
8ee-	-tet
8cc	kommt
8g-	die
=25	=25
4f}	Qual.}
8r	.
{8f	{Da
8b-	ho2r'
8a-	ich
=26	=26
4a-	wie-
8g	|
8g	-der
8ee-	dich
8dd	ein-
=27	=27
4dd	-mal.
8cc}	|}
{8cc	{Auf
8aa-	ein-
8ff	-mal
=28	=28
4ee-	bist
8dd	|
8cc	du
8b-	wie-
8a-	-der
=29	=29
4g}	da.}
4r	.
{4ee-	{Auf
=30	=30
2ee-	ein-
4ee-	-mal
=31	=31
16ffq	bist
16ee-	|
16dd	|
16ee-	|
16ff	|
16gg	|
16dd	|
16ee-	|
16cc	|
[4b-	du
=32	=32
4b-]	|
4b-	wie-
4b-	-der
=33	=33
4b-}	da!}
4r	.
4r	.
==	==
*-	*-
